X: 59
M:6/8
L:1/8
K:G
d | gGG BAG | BcB BAG |
gGG BAG | ABd e2d | gGG BAG |
d | gbg bgb | faf afa |
gbg bgb | faf e2d | gbg bgb |
faf afa | gfe dcB | ABd e2 :|


